!!!!SEGMENT: pl-sa--l-1636--075_anonim--kyri-3tium.krn
!!!cenid: 17xx:782
!!!COM: Anonim
!!!COM-rismID: pe30004985
!!!CDT:
!!!CNT:
!!!OTL: Kyri 3tium
!!!PDT:
!!!AGN: Sacred
!!!SMS-siglum: PL-SA
!!!SMS-shelfmark: L 1636
!!!SMS-shelfwork: 075 W
!!!SMS-variant:
!!!SMS-altvar:
!!!NIFC-rismSourceID: 1001076919
!!!NIFC-rismChildID: 1001076919
!!!NIFC-islandoraID:
!!!URL-pdf-islandora:
!!!URL-scan:
!!!ONB-nifc: 22v, skan 0026, s. 1-4
!!!AIN: 1 empty
!!!key:
**kern	**fb	**kern
*part1	*	*part1
*staff2	*	*staff1
*Iempty	*	*Iempty
*I"[Keyboard]	*	*
*I'keyb	*	*
*clefC4	*	*clefC1
*k[]	*	*k[]
*G:	*	*G:
*M2/2	*	*M2/2
*met(c|)	*	*met(c|)
=1	=1	=1
*	*above	*
*2\right	*	*2\right
!LO:TX:a:i:t=Kyri ʒtium	!	!
1ryy	.	2g\
.	.	2a\
=2	=2	=2
*2\right	*	*
2c\	.	2cc\
2d\	.	2a\
=3	=3	=3
2f\	.	1a
8d\L	.	.
8c\	.	.
8d\	.	.
8e\J	.	.
=4	=4	=4
2f\	.	8a\L
.	.	8g\
.	.	8a\
.	.	8b\J
8e\L	.	2cc\
8d\	.	.
8e\	.	.
8c\J	.	.
=5	=5	=5
2d\	.	8a\L
.	.	8g\
.	.	8a\
.	.	8b\J
2c\	.	4cc\
.	.	4g/
=6	=6	=6
*	*	*^
4.d\	.	4r	2f\
.	.	4a/	.
8c\	.	.	.
4B\	.	2b/	2g\
8A\L	.	.	.
8G\J	.	.	.
=7	=7	=7	=7
.	X 5	.	.
2A\	.	2cc 2a/	4e\
.	X 5	.	4f\
4G/	.	2b/	2g\
8F/L	.	.	.
8E/J	.	.	.
=8	=8	=8	=8
4D/	.	4a/	4f#X\
4BB/	.	4b/	4g\
4C/	.	2a/	4g\
4D/	.	.	4f#X\
*	*	*v	*v
!!LO:LB:g=original
=9	=9	=9
*clefF4	*	*
*^	*	*
2G/	2GG\	.	2g/
2A/	2AA\	.	2f/
=10	=10	=10	=10
*	*	*	*^
2G/	2C\	.	2e/	1c
4A/	4AA\	.	4f/	.
4G/	4C\	.	4e/	.
=11	=11	=11	=11	=11
2G 2D/	2GG\	.	4.d/	2B\
.	.	.	8e/	.
2F 2C/	2FF\	.	4f/	4A\
.	.	.	8a\L	4ryy
.	.	.	8cc\J	.
=12	=12	=12	=12	=12
2E/	2EE\	.	2g/	2ryy
4.D/	2DD/	.	4r	2f\
.	.	.	4a/	.
8C/	.	.	.	.
*v	*v	*	*	*
=13	=13	=13	=13
4BB/	.	2b/	2g\
8AA/L	.	.	.
8GG/J	.	.	.
2AA/	X 7	2cc 2a/	4g\
.	6 #	.	4f#X\
=14	=14	=14	=14
!LO:TX:a:t=P:problem=mixed beam	!	!	!
8GG/L	.	2b/	2g\
8G\	.	.	.
8F\	X #	.	.
8E\J	.	.	.
4D/	.	4a/	4f#X\
8BB/L	.	4b/	4g\
8C/J	.	.	.
=15	=15	=15	=15
1D	.	1a	4g\
.	.	.	8f\L
.	.	.	8e\J
.	.	.	4d\
.	.	.	4c\
=16	=16	=16	=16
!	!	!	!LO:TX:a:t=P:problem=nie wszystkie nuty czytelne - zamazane źródło
1G 1D 1GG	.	1dd 1g	1 1
!!LO:LB:g=original
=17	=17	=17	=17
!	!	!LO:TX:b:i:t=Christe	!
8C/L	.	2cc 2g/	2e\
8D/	.	.	.
8E/	.	.	.
8F/J	.	.	.
8G\L	.	2dd 2b/	2g\
8A\	.	.	.
8B\	.	.	.
8G\J	.	.	.
=18	=18	=18	=18
8A\L	.	2cc/	2a\
8B\	.	.	.
8c\	.	.	.
8d\J	.	.	.
8e\L	.	2b/	2ryy
8f#X\J	.	.	.
[>4g\	.	.	.
*	*	*v	*v
=19	=19	=19
4g\]	.	2a/
4f\	.	.
4e\	.	2cc/
8d\L	.	.
8c\J	.	.
=20	=20	=20
*^	*	*
2e/	2c\	.	8a\L
.	.	.	8g\
.	.	.	8a\
.	.	.	8b\J
2e/	2c\	.	4cc\
.	.	.	4g/
*v	*v	*	*
=21	=21	=21
*	*	*^
4.d\	.	4r	2f\
.	.	4a/	.
8c\	.	.	.
4B\	.	2b/	2g\
8A\L	.	.	.
8G\J	.	.	.
=22	=22	=22	=22
2A\	.	2cc 2a/	4e\
.	.	.	4f#X\
4G\	.	2b/	2g\
8F\L	.	.	.
8E\J	.	.	.
!!LO:LB:g=original
=23	=23	=23	=23
4D/	.	4a/	4f#X\
8BB/L	.	4b/	4g\
8C/J	.	.	.
2D 2DD/	.	2a/	4g\
.	.	.	4f#X\
=24	=24	=24	=24
1G 1D 1BB 1GG	.	1g	1d 1B
*	*	*v	*v
!LO:TX:a:t=P:||:problem=w źródle końcowa kreska taktowa 	!	!LO:TX:a:t=P:||:problem=w źródle końcowa kreska taktowa 
==	==	==
*-	*-	*-
!!!system-decoration: s1,s2
!!!RDF**kern: > = above
!!!RDF**kern: < = below
!!!EED: Antoni Szymański
!!!EEV: 2020-12-08
!!!ENC: Tomasz Grochalski
!!!END: 2020-06-12
!!!YEC: Copyright 2022 Narodowy Instytut Fryderyka Chopina (https://polishscores.org)
!!!YEM: License CC-BY-4.0 (https://creativecommons.org/licenses/by/4.0)
